!!key: tele-40-03-Fan-Viv-02-Flute
!!!COM: Telemann, Georg Philipp
!!!CDT: 1681/03/14-1767/06/25
!!!CBL: Magdeburg
!!!CDL: Hamburg
!!!CNT: German
!!!TWV: 40:3
!!!TWV-genre: 40
!!!TWV-work: 3
!!!OPR: 12 Fantasias for transverse flute without bass
!!!OTL: Fantasia 2
!!!OMD: Vivace
!!!OMV: 2
!!!ODT: ca. 1732–1733
!!!AST: Late Baroque
!!!AGN: Fantasia
!!!AMT: Simple triple
!!!AIN: Transverse flute
**kern	**dynam
*ICww	*
*Iflt	*
*clefG2	*
*a:	*
*M3/4	*
=1	=1
8r	.
16ccLL	.
16ddJJ	.
8eeL	.
8g#X	.
8a	.
8ffJ	.
=2	=2
8g#XL	.
8ff	.
8ee	.
8f#X	.
8gn	.
8eeJ	.
=3	=3
8f#XL	.
8ee	.
8dd	.
8e	.
8fn	.
8ddJ	.
=4	=4
16eLL	.
16dd	.
16cc	.
16bJJ	.
8ccL	.
8a	.
8e	.
8gg#XJ	.
=5	=5
8aL	.
16aaL	.
16gg#XJJ	.
8aaL	.
8ee	.
8aa	.
8cccJ	.
!!LO:LB:g=original
=6	=6
8bL	.
8bb	.
8cc#X	.
8aa	.
8dd#X	.
8ff#XJ	.
=7	=7
8eL	.
16ggL	.
16aaJJ	.
8bbL	.
8dd#X	.
8ee	.
8cccJ	.
=8	=8
8dd#XL	.
8ccc	.
8bb	.
8cc#X	.
8ddn	.
8bbJ	.
=9	=9
8cc#XL	.
8bb	.
8aa	.
8b	.
8ccn	.
8aaJ	.
=10	=10
16bLL	.
16aa	.
16gg	.
16ff#XJJ	.
8ggL	.
8ee	.
8b	.
8dd#XJ	.
!!LO:LB:g=original
=11	=11
8eL	.
16eeL	.
16dd#XJJ	.
8eeL	.
8b	.
8ee	.
8ggJ	.
=12	=12
8aL	.
8aa	.
8b	.
8gg	.
8cc#X	.
8ggJ	.
=13	=13
8dL	.
16ddL	.
16cc#XJJ	.
8ddL	.
8a	.
8dd	.
8ffJ	.
=14	=14
8gL	.
8gg	.
8a	.
8ff	.
8b	.
8dddJ	.
=15	=15
8ccL	.
16eeL	.
16ggJJ	.
8cccL	.
8cc	.
8ccc	.
8ccJ	.
!!LO:LB:g=original
=16	=16
8r	.
16eeLL	p
16ggJJ	.
8cccL	.
8cc	.
8ccc	.
8ccJ	.
=17	=17
8r	.
16eeLL	f
16ggJJ	.
8cccL	.
8cc	.
8ccc	.
8ccJ	.
=18	=18
16aaLL	.
16bb-X	.
16aa	.
16ggJJ	.
16ffLL	.
16gg	.
16ff	.
16eeJJ	.
16ddLL	.
16ee	.
16dd	.
16ccJJ	.
=19	=19
8bnL	.
16ddL	.
16ccJJ	.
16bLL	.
16cc	.
16b	.
16aJJ	.
16gLL	.
16a	.
16g	.
16fJJ	.
!!LO:LB:g=original
=20	=20
8eL	.
8gg	.
8f	.
8aa	.
8g	.
8bJ	.
=21	=21
8ccL	.
16eeL	.
16ffJJ	.
8ggL	.
8b	.
8cc	.
8eJ	.
=22	=22
8fL	.
16ffL	.
16ggJJ	.
8aaL	.
8cc#X	.
8dd	.
8bb-XJ	.
=23	=23
8cc#XL	.
8bb-X	.
8aa	.
8bn	.
8ccn	.
8aaJ	.
=24	=24
8bL	.
8aa	.
8gg	.
8a	.
8b-X	.
8ggJ	.
!!LO:LB:g=original
=25	=25
16aLL	.
16gg	.
16ff	.
16eeJJ	.
8ffL	.
8dd	.
8a	.
8ccc#XJ	.
=26	=26
8dL	.
16ffL	.
16aaJJ	.
8dddL	.
8dd	.
8ddd	.
8ddJ	.
=27	=27
8r	.
16ffLL	p
16aaJJ	.
8dddL	.
8dd	.
8ddd	.
8ddJ	.
=28	=28
8ccnL	f
8ff#X	.
8b	.
8gg	.
8a	.
8aaJ	.
=29	=29
8gL	.
8bb	.
8f#X	.
8aa	.
8g	.
8bbJ	.
!!LO:LB:g=original
=30	=30
8ddL	.
8gg#X	.
8cc	.
8aa	.
8b	.
8bbJ	.
=31	=31
8aL	.
8ccc	.
8g#X	.
8bb	.
8a	.
8cccJ	.
=32	=32
8dL	.
16bb-XL	.
16aaJJ	.
8bb-L	.
8dd	.
8e	.
8gg#J	.
=33	=33
8fL	.
16aaL	.
16gg#XJJ	.
8aaL	.
8cc	.
8e	.
8aaJ	.
=34	=34
8dL	p
16bb-XL	.
16aaJJ	.
8bb-L	.
8dd	.
8e	.
8gg#J	.
!!LO:LB:g=original
=35	=35
8fL	.
16aaL	.
16gg#XJJ	.
8aaL	.
8cc	.
8e	.
8aaJ	.
=36	=36
8d\L	f
16ffL	.
16eeJJ	.
8ffL	.
8a	.
8dd	.
8ffJ	.
=37	=37
8eL	.
8ee	.
8f#X	.
8dd	.
8g#X	.
8bbJ	.
=38	=38
8aL	.
16ccL	.
16ddJJ	.
8eeL	.
8g#X	.
8a	.
8ffnJ	.
=39	=39
8g#XL	.
8ff	.
8ee	.
8f#X	.
8gn	.
8eeJ	.
!!LO:LB:g=original
=40	=40
8f#XL	.
8ee	.
8dd	.
8e	.
8fn	.
8ddJ	.
=41	=41
16eLL	.
16dd	.
16cc	.
16bJJ	.
8ccL	.
8a	.
8e	.
8gg#XJ	.
=42	=42
8aL	.
16ccL	.
16eeJJ	.
8aaL	.
8a	.
8aa	.
8aJ	.
=43	=43
8r	.
16ccLL	p
16eeJJ	.
8aaL	.
8a	.
8aa	.
8aJ	.
=44	=44
8r	.
16ccLL	f
16eeJJ	.
8aaL	.
8a	.
8aa	.
8aJ	.
!!LO:LB:g=original
=45	=45
16ffLL	.
16gg	.
16ff	.
16eeJJ	.
16ddLL	.
16ee	.
16dd	.
16ccJJ	.
16bLL	.
16cc	.
16b	.
16aJJ	.
=46	=46
16ffLL	p
16gg	.
16ff	.
16eeJJ	.
16ddLL	.
16ee	.
16dd	.
16ccJJ	.
16bLL	.
16cc	.
16b	.
16aJJ	.
=47	=47
8gg#XL	f
8ee	.
8aa	.
8cc	.
8e	.
8gg#J	.
=48	=48
8aaL	.
8eeJ	.
4a	.
4r	.
==	==
*-	*-
!!!RTL1: G. PH. Telemann: Twelve Fantasias for Flute without Bass TWV 40:2-13
!!!RPN1: D'Arcangelo, Rita
!!!RMM1: Da Vinci Classics
!!!RC#1: DV-C00440
!!!RRD1: 2022
!!!RLC1: Andreaskirche, Berlin, Germany
!!!RDT1: 16 September 2020, 17 September 2020
!!!RT#1: 2
!!!RTL2: The Telemann Files: 12 Fantasies for Solo Flute
!!!RPN2: Choi, Jasmine
!!!RMM2: Austrian Gramophone
!!!RC#2: AG0001
!!!RRD2: February 2015
!!!RLC2: LeFrak Hall, Queens, USA
!!!RDT2: 9 June 2014, 10 June 2014
!!!RT#2: 2
!!!RTL3: Georg Philipp Telemann: Twelve Fantasies for Flute
!!!RPN3: Robertello, Thomas
!!!RMM3: Delos
!!!RC#3: DE3396
!!!RRD3: 1 June 2009
!!!RLC3: Clear Creek Recording, Keene, California
!!!RDT3: Unknown
!!!RT#3: 2
